flaticon/essential/speaker-8.svg

<svg xmlns="http://www.w3.org/2000/svg" width="32" height="32" viewBox="0 0 24 24">
    <path d="M20.628906 11.554688L23.871094 8.3125C24.042969 8.140625 24.042969 7.859375 23.871094 7.6875 23.695312 7.511719 23.414062 7.511719 23.242188 7.6875L20 10.925781 16.757812 7.6875C16.585938 7.511719 16.304688 7.511719 16.128906 7.6875 15.957031 7.859375 15.957031 8.140625 16.128906 8.3125L19.371094 11.554688 16.128906 14.796875C15.957031 14.96875 15.957031 15.25 16.128906 15.425781 16.21875 15.511719 16.332031 15.554688 16.445312 15.554688 16.558594 15.554688 16.671875 15.511719 16.757812 15.425781L20 12.183594 23.242188 15.425781C23.328125 15.511719 23.441406 15.554688 23.554688 15.554688 23.667969 15.554688 23.78125 15.511719 23.871094 15.425781 24.042969 15.25 24.042969 14.96875 23.871094 14.796875zM12.625 1.957031C12.191406 1.710938 11.675781 1.71875 11.25 1.976562 11.230469 1.988281 11.210938 2 11.191406 2.015625L5.171875 7.109375.445312 7.109375C.199219 7.109375 0 7.308594 0 7.554688L0 16C0 16.117188.046875 16.230469.128906 16.3125.214844 16.398438.328125 16.445312.445312 16.445312L5.160156 16.441406 11.179688 21.972656C11.203125 21.992188 11.226562 22.007812 11.25 22.023438 11.46875 22.15625 11.710938 22.222656 11.953125 22.222656 12.183594 22.222656 12.414062 22.164062 12.625 22.042969 13.066406 21.792969 13.332031 21.335938 13.332031 20.820312L13.332031 3.179688C13.332031 2.664062 13.066406 2.207031 12.625 1.957031zM12.445312 20.820312C12.445312 21.011719 12.347656 21.179688 12.1875 21.269531 12.117188 21.308594 11.945312 21.382812 11.742188 21.28125L5.777344 15.800781 5.777344 13.777344C5.777344 13.53125 5.578125 13.332031 5.332031 13.332031 5.085938 13.332031 4.890625 13.53125 4.890625 13.777344L4.890625 15.554688.890625 15.554688.890625 8 4.890625 8 4.890625 9.777344C4.890625 10.023438 5.085938 10.222656 5.332031 10.222656 5.578125 10.222656 5.777344 10.023438 5.777344 9.777344L5.777344 7.761719 11.734375 2.722656C11.941406 2.613281 12.117188 2.691406 12.1875 2.730469 12.347656 2.820312 12.445312 2.988281 12.445312 3.179688zM12.445312 20.820312"/>
</svg>

<svg xmlns="http://www.w3.org/2000/svg" width="32" height="32" viewBox="0 0 24 24">
    <path d="M20.629 11.555l3.242-3.242a.443.443 0 1 0-.629-.626L20 10.927l-3.242-3.239a.443.443 0 1 0-.629.625l3.242 3.243-3.242 3.242a.448.448 0 0 0 0 .629c.09.086.203.129.316.129a.44.44 0 0 0 .313-.13L20 12.185l3.242 3.242a.44.44 0 0 0 .313.129.456.456 0 0 0 .316-.13.448.448 0 0 0 0-.628zm0 0M12.625 1.957a1.345 1.345 0 0 0-1.434.059l-6.02 5.093H.446C.2 7.11 0 7.31 0 7.555V16a.444.444 0 0 0 .445.445l4.715-.004 6.02 5.532c.023.02.047.035.07.05a1.352 1.352 0 0 0 1.375.02c.441-.25.707-.707.707-1.223V3.18c0-.516-.266-.973-.707-1.223zm-.18 18.863c0 .192-.097.36-.258.45a.467.467 0 0 1-.445.011l-5.965-5.48v-2.024c0-.246-.199-.445-.445-.445s-.441.2-.441.445v1.778h-4V8h4v1.777c0 .246.195.446.441.446s.445-.2.445-.446V7.762l5.957-5.04a.463.463 0 0 1 .454.008c.16.09.257.258.257.45zm0 0"/>
</svg>
